X: 12765
T: Father Quinn's
R: jig
M: 6/8
K: Edorian
|:B3 BAF|BdB BAF|AFE D3|DFA BAF|
B3 BAF|BdB BAF|AFE D3|BAF E3:|
|:efe BAB|ede gfe|dcd AFA|D3 DFA|
efe BAB|ede gfe|dAF D3|BAF E3:|

